X:2013
T:Flogging Reel, The
O:england
S:abcusers-l, Phil Taylor, 5-98
R:reel
H:Originates from a Scottish reel called "The Flagon Reel"
D:Chieftains: Live. Oisin: Over the Moor to Maggie.
D:Mary Bergin: Feadoga Stain 2.
Q:350
M:C|
K:G
BG~G2 BGdG|BG~G2 Bdgd|BG~G2 BdcB|1 ADFG ABcA :|2 AGFG ABcA||
~g3d BGBd|~g2eg faaf|g2gd BddB|ADFG ABcA|
~g3d BGBd|~g2eg fa~a2|bgaf gedB|AGFG ABcA||
Bdgd Bdgd|Bdgd BG~G2|Ac=fc Acfc|Ac=fc BG~G2|
Bdgd Bdgd|Bdef ~g3a|bgaf gedB|AGFG ABcA||


